X:35
T:Vergins Wish,The. JGi.035
M:6/8
L:1/8
Q:3/8=110
S:Joshua Gibbons MS,1823,Tealby,Lincs.
R:jig
O:Tealby,Lincolnshire
Z:VMP/R.Greig, 2009
K:D
A|d3fdf|a3f3|d2fe2d|ced cBA|d3 fdf|a3f3|gab cag|a3a2:|
|:a|a3fga|g3 efg|fag fed|ced cBA|d3Bcd|c3 ABc|def gec|d3d2:|

